svg/u1f3e5.svg

<svg viewBox="0 0 128 128" xmlns="http://www.w3.org/2000/svg">
  <path d="M4.36,94.22c0,0-0.06-63.95-0.06-65.78c0-2.01,1.05-2.36,2.73-2.41c1.61-0.05,112.48-0.1,114.23-0.05 c2.29,0.06,2.5,1.5,2.58,3.33c0.08,1.83,0.02,64.96,0.02,64.96l-62.63,1.16L4.36,94.22z" fill="#BACFD4"/>
  <path d="M4.36,94.22c0,0,0.03,26.54,0.03,27.92s1,2.38,2.89,2.38s112.59-0.25,114.1-0.25s2.38-1.38,2.51-3.64 c0.13-2.26-0.01-26.37-0.01-26.37L4.36,94.22z" fill="#6BA4AE"/>
  <polygon points="33.83,102.57 33.94,124.44 93.26,124.44 93.36,102.15 " fill="#546F7A"/>
  <polygon points="40.1,103.67 40.1,124.42 43.4,124.42 43.4,103.38 " fill="#B9CED3"/>
  <polygon points="62.03,103.28 62.03,124.39 65.37,124.39 65.37,102.96 " fill="#B9CED3"/>
  <polygon points="84.64,103.32 84.64,124.44 88.07,124.44 88.07,102.87 " fill="#B9CED3"/>
  <path d="M39.45,94.47c0,0-0.35-85.49-0.35-87.34s0.71-3.31,2.56-3.43c1.85-0.12,41.76-0.12,43.38,0 c1.62,0.12,2.65,1.12,2.65,3.2s0.23,87.57,0.23,87.57l16.89,2.08c0,0,0,3.47,0,5.09c0,1.62-0.58,2.26-2.26,2.26 c-1.68,0-77.45,0-78.96,0c-1.5,0-1.97-1.56-1.97-3.18s0-5.44,0-5.44L39.45,94.47z" fill="#F1EDEC"/>
  <path d="M21.66,97.05l83.15-0.04c0,0,0.05-1.79,0-2.68c-0.07-1.26-1.14-1.3-3.58-1.3s-76.57,0-77.63,0 s-1.88,0.37-1.96,1.43S21.66,97,21.66,97.05z" fill="#FEFFFD"/>
  <path d="M47.49,65.41c0.23,0.23,31.31,0.37,31.51,0.16c0.18-0.19,0.32-11.69,0.08-11.93 c-0.31-0.31-31.35-0.24-31.59,0C47.25,53.88,47.25,65.16,47.49,65.41z" fill="#546F7A"/>
  <path d="M47.57,75.16c-0.41,0.14-0.08,11.69-0.08,11.69l31.67-0.24c0,0,0.28-11.18-0.24-11.44 C78.6,75,48.06,75,47.57,75.16z" fill="#546F7A"/>
  <polygon points="92.06,33.81 92.06,46.55 104.07,46.55 104.07,33.65 " fill="#546F7A"/>
  <polygon points="108.82,33.65 120.19,33.65 120.35,46.39 108.74,46.39 " fill="#546F7A"/>
  <polygon points="108.66,53.96 108.58,66.29 120.11,66.29 120.27,53.96 " fill="#546F7A"/>
  <polygon points="104.07,53.88 91.98,53.88 91.98,66.29 104.23,66.29 " fill="#546F7A"/>
  <path d="M104.15,74.35H92.06v12.65h12.25C104.31,87.01,103.99,74.19,104.15,74.35z" fill="#546F7A"/>
  <path d="M108.66,74.27h11.44v12.9h-11.44C108.66,87.17,108.78,74.15,108.66,74.27z" fill="#546F7A"/>
  <polygon points="24.36,86.84 24.36,74.03 36.13,73.87 36.13,86.68 " fill="#546F7A"/>
  <path d="M19.85,86.76V73.95H7.84l0.08,12.98C7.92,86.92,20.01,86.76,19.85,86.76z" fill="#546F7A"/>
  <rect height="12.33" fill="#546F7A" width="12.17" x="7.76" y="53.64"/>
  <polygon points="24.52,53.56 24.52,65.97 35.97,65.97 35.97,53.64 " fill="#546F7A"/>
  <rect height="12.98" fill="#546F7A" width="11.12" x="24.68" y="33.17"/>
  <polygon points="19.69,33.65 7.92,33.57 7.92,45.98 19.69,45.98 " fill="#546F7A"/>
  <path d="M56.94,20.78c0,0-0.02-12.35,0.07-13.19c0.08-0.85,0.59-1.02,1.19-1.02c0.59,0,10.85,0,11.44,0.08 c0.59,0.08,0.85,0.59,0.85,1.53c0,0.93,0,12.54,0,12.54s12.2,0.08,12.71,0.08c0.51,0,1.02,0.59,1.02,1.27c0,0.68,0,10.42,0,11.18 c0,0.76-0.08,1.53-1.02,1.69s-12.79,0-12.79,0s0,13.51,0,14.09s-0.49,1.08-1.31,1.14s-10.99,0-11.56,0s-0.57-1.71-0.57-2.29 s0-12.64,0-12.64s-12.7,0-13.28,0s-0.83-0.57-0.89-1.65c-0.06-1.08,0.04-10.86,0.06-11.43c0.04-0.89,0.38-1.32,1.01-1.38 C44.49,20.73,56.94,20.78,56.94,20.78z" fill="#DD0C26"/>
  <rect height="34.1" fill="#FFFFFF" width="3.16" x="62.13" y="11.57"/>
  <rect height="3.21" fill="#FFFFFF" width="31.56" x="47.69" y="26.26"/>
</svg>

<svg viewBox="0 0 128 128" xmlns="http://www.w3.org/2000/svg">
  <defs/>
  <path d="M4.36,94.22 C4.36,94.22 4.3,30.27 4.3,28.44 C4.3,26.43 5.35,26.08 7.03,26.03 C8.64,25.98 119.51,25.93 121.26,25.98 C123.55,26.04 123.76,27.48 123.84,29.31 C123.92,31.14 123.86,94.27 123.86,94.27 L61.23,95.43 L4.36,94.22 Z" fill="#BACFD4"/>
  <path d="M4.36,94.22 C4.36,94.22 4.39,120.76 4.39,122.14 C4.39,123.52 5.39,124.52 7.28,124.52 C9.17,124.52 119.87,124.27 121.38,124.27 C122.89,124.27 123.76,122.89 123.89,120.63 C124.02,118.37 123.88,94.26 123.88,94.26 L4.36,94.22 Z" fill="#6BA4AE"/>
  <path d="M33.83,102.57 L33.94,124.44 L93.26,124.44 L93.36,102.15 Z" fill="#546F7A"/>
  <path d="M40.1,103.67 L40.1,124.42 L43.4,124.42 L43.4,103.38 Z" fill="#B9CED3"/>
  <path d="M62.03,103.28 L62.03,124.39 L65.37,124.39 L65.37,102.96 Z" fill="#B9CED3"/>
  <path d="M84.64,103.32 L84.64,124.44 L88.07,124.44 L88.07,102.87 Z" fill="#B9CED3"/>
  <path d="M39.45,94.47 C39.45,94.47 39.1,8.98 39.1,7.13 C39.1,5.28 39.81,3.82 41.66,3.7 C43.51,3.58 83.42,3.58 85.04,3.7 C86.66,3.82 87.69,4.82 87.69,6.9 C87.69,8.98 87.92,94.47 87.92,94.47 L104.81,96.55 C104.81,96.55 104.81,100.02 104.81,101.64 C104.81,103.26 104.23,103.9 102.55,103.9 C100.87,103.9 25.1,103.9 23.59,103.9 C22.09,103.9 21.62,102.34 21.62,100.72 C21.62,99.1 21.62,95.28 21.62,95.28 L39.45,94.47 Z" fill="#F1EDEC"/>
  <path d="M21.66,97.05 L104.81,97.01 C104.81,97.01 104.86,95.22 104.81,94.33 C104.74,93.07 103.67,93.03 101.23,93.03 C98.79,93.03 24.66,93.03 23.6,93.03 C22.54,93.03 21.72,93.4 21.64,94.46 C21.56,95.52 21.66,97 21.66,97.05 Z" fill="#FEFFFD"/>
  <path d="M47.49,65.41 C47.72,65.64 78.8,65.78 79,65.57 C79.18,65.38 79.32,53.88 79.08,53.64 C78.77,53.33 47.73,53.4 47.49,53.64 C47.25,53.88 47.25,65.16 47.49,65.41 Z" fill="#546F7A"/>
  <path d="M47.57,75.16 C47.16,75.3 47.49,86.85 47.49,86.85 L79.16,86.61 C79.16,86.61 79.44,75.43 78.92,75.17 C78.6,75 48.06,75 47.57,75.16 Z" fill="#546F7A"/>
  <path d="M92.06,33.81 L92.06,46.55 L104.07,46.55 L104.07,33.65 Z" fill="#546F7A"/>
  <path d="M108.82,33.65 L120.19,33.65 L120.35,46.39 L108.74,46.39 Z" fill="#546F7A"/>
  <path d="M108.66,53.96 L108.58,66.29 L120.11,66.29 L120.27,53.96 Z" fill="#546F7A"/>
  <path d="M104.07,53.88 L91.98,53.88 L91.98,66.29 L104.23,66.29 Z" fill="#546F7A"/>
  <path d="M104.15,74.35 L92.06,74.35 L92.06,87 L104.31,87 C104.31,87.01 103.99,74.19 104.15,74.35 Z" fill="#546F7A"/>
  <path d="M108.66,74.27 L120.1,74.27 L120.1,87.17 L108.66,87.17 C108.66,87.17 108.78,74.15 108.66,74.27 Z" fill="#546F7A"/>
  <path d="M24.36,86.84 L24.36,74.03 L36.13,73.87 L36.13,86.68 Z" fill="#546F7A"/>
  <path d="M19.85,86.76 L19.85,73.95 L7.84,73.95 L7.92,86.93 C7.92,86.92 20.01,86.76 19.85,86.76 Z" fill="#546F7A"/>
  <path d="M7.76,53.64 L19.93,53.64 L19.93,65.97 L7.76,65.97 L7.76,53.64 Z" fill="#546F7A"/>
  <path d="M24.52,53.56 L24.52,65.97 L35.97,65.97 L35.97,53.64 Z" fill="#546F7A"/>
  <path d="M24.68,33.17 L35.8,33.17 L35.8,46.15 L24.68,46.15 L24.68,33.17 Z" fill="#546F7A"/>
  <path d="M19.69,33.65 L7.92,33.57 L7.92,45.98 L19.69,45.98 Z" fill="#546F7A"/>
  <path d="M56.94,20.78 C56.94,20.78 56.92,8.43 57.01,7.59 C57.09,6.74 57.6,6.57 58.2,6.57 C58.79,6.57 69.05,6.57 69.64,6.65 C70.23,6.73 70.49,7.24 70.49,8.18 C70.49,9.11 70.49,20.72 70.49,20.72 C70.49,20.72 82.69,20.8 83.2,20.8 C83.71,20.8 84.22,21.39 84.22,22.07 C84.22,22.75 84.22,32.49 84.22,33.25 C84.22,34.01 84.14,34.78 83.2,34.94 C82.26,35.1 70.41,34.94 70.41,34.94 C70.41,34.94 70.41,48.45 70.41,49.03 C70.41,49.61 69.92,50.11 69.1,50.17 C68.28,50.23 58.11,50.17 57.54,50.17 C56.97,50.17 56.97,48.46 56.97,47.88 C56.97,47.3 56.97,35.24 56.97,35.24 C56.97,35.24 44.27,35.24 43.69,35.24 C43.11,35.24 42.86,34.67 42.8,33.59 C42.74,32.51 42.84,22.73 42.86,22.16 C42.9,21.27 43.24,20.84 43.87,20.78 C44.49,20.73 56.94,20.78 56.94,20.78 Z" fill="#DD0C26"/>
  <path d="M62.13,11.57 L65.29,11.57 L65.29,45.67 L62.13,45.67 L62.13,11.57 Z" fill="#FFFFFF"/>
  <path d="M47.69,26.26 L79.25,26.26 L79.25,29.47 L47.69,29.47 L47.69,26.26 Z" fill="#FFFFFF"/>
</svg>
